X: 14
T: THE FROG AND THE MOUSE
T: Amo Amas, I Love a Lass
B: "Old English Country Dances", Frank Kidson ed., William Reeves pub., London 1890
Z: 2010-9-26 John Chambers <jc:trillian.mit.edu>
M: 2/4
L: 1/8
K: G
D |\
G2G2 | D2D2 | EDEF | D3D |\
G2D2 | GFGA | B4 | G3 :|
|: G |\
B2c2 | d2B2 | G2G2 | A2D2 |\
D2d2 | dedc | B4 | d4 |
G2G2 | D2D2 EDEF | D2D2 | G2D2 |\
GFGA | B4 | G3 :|


%%sep 1 1 500

%%sep 1 1 500

